img/help-center-account.svg

<?xml version="1.0" encoding="UTF-8"?>
<svg width="100px" height="100px" viewBox="0 0 100 100" version="1.1" xmlns="http://www.w3.org/2000/svg" xmlns:xlink="http://www.w3.org/1999/xlink">
    <!-- Generator: Sketch 48.2 (47327) - http://www.bohemiancoding.com/sketch -->
    <title>help-center-account</title>
    <desc>Created with Sketch.</desc>
    <defs>
        <path d="M50,100 C22.3857625,100 0,77.6142375 0,50 C0,22.3857625 22.3857625,0 50,0 C77.6142375,0 100,22.3857625 100,50 C100,77.6142375 77.6142375,100 50,100 Z" id="path-1"></path>
    </defs>
    <g id="Page-1" stroke="none" stroke-width="1" fill="none" fill-rule="evenodd">
        <g id="help-center-account">
            <g id="Combined-Shape" opacity="0.197067482">
                <use fill="#000000" fill-rule="evenodd" xlink:href="#path-1"></use>
                <path stroke="#000000" stroke-width="4" d="M50,98 C76.509668,98 98,76.509668 98,50 C98,23.490332 76.509668,2 50,2 C23.490332,2 2,23.490332 2,50 C2,76.509668 23.490332,98 50,98 Z"></path>
            </g>
            <path d="M38.2425349,54.5645917 C38.4533974,54.5028983 38.7048907,54.4477614 39,54.4000244 C45,53.4294617 39.0294373,41.4000244 50,41.4000244 C60.9705627,41.4000244 55,53.4294617 61,54.4000244 C61.2951093,54.4477614 61.5466026,54.5028983 61.7574651,54.5645917 C73.0954962,55.8545015 81.5089367,59.740755 80,70 C78,83.5979797 66.5685425,85 50,85 C33.4314575,85 22,83.5979797 20,70 C18.4910633,59.740755 26.9045038,55.8545015 38.2425349,54.5645917 Z" id="Combined-Shape" fill="#D3E0EC"></path>
            <path d="M50,50 C41.7847643,50 36.5416667,43.0971741 35.8333333,33 C35.125,22.9028259 41.7847643,16 50,16 C58.2152357,16 64.875,22.9028259 64.1666667,33 C63.4583333,43.0971741 58.2152357,50 50,50 Z" id="Combined-Shape" fill="#F5F9FF"></path>
        </g>
    </g>
</svg>

<svg width="100" height="100" viewBox="0 0 100 100" xmlns="http://www.w3.org/2000/svg" xmlns:xlink="http://www.w3.org/1999/xlink"><defs><path d="M50 100C22.386 100 0 77.614 0 50S22.386 0 50 0s50 22.386 50 50-22.386 50-50 50z" id="a"/></defs><g fill="none" fill-rule="evenodd"><g opacity=".197"><use fill="#000" xlink:href="#a"/><path stroke="#000" stroke-width="4" d="M50 98c26.51 0 48-21.49 48-48S76.51 2 50 2 2 23.49 2 50s21.49 48 48 48z"/></g><path d="M38.243 54.565c.21-.062.462-.117.757-.165 6-.97.03-13 11-13s5 12.03 11 13c.295.048.547.103.757.165C73.095 55.855 81.51 59.74 80 70c-2 13.598-13.431 15-30 15-16.569 0-28-1.402-30-15-1.509-10.26 6.905-14.145 18.243-15.435z" fill="#D3E0EC"/><path d="M50 50c-8.215 0-13.458-6.903-14.167-17C35.125 22.903 41.785 16 50 16s14.875 6.903 14.167 17C63.458 43.097 58.215 50 50 50z" fill="#F5F9FF"/></g></svg>
